X: 4
T: Missa Da pacem / Sanctus
N: Derived from Mou1020d-Missa_Da_pacem-Sanctus.krn
%%abc-version 2.0
%%abcx-abcm2ps-target-version 5.9.1 (29 Sep 2008)
%%abc-creator hum2abc beta
%%abcx-conversion-date 2019/02/17 07:22:03
%%abc-edited-by Jesse Rodin
%%abc-edited-by Victoria Chang 2011/04/18
%%abcx-initial-encoding-date 2011/04/18/
%%humdrum-veritas 3622311056
%%humdrum-veritas-data 137534414
%%linebreak <none>
%%barnumbers 0
L: 1/4
M: 3/1
Q: 1/2=120
%%staves [1 2 3 4]
V: 1 clef=treble
V: 2 clef=treble-8
V: 3 clef=treble-8
V: 4 clef=bass
K: F
[V:1] z12 | 
[V:2] G8F4 | 
[V:3] z12 | 
[V:4] z12 | 
[V:1] G8F4 | 
[V:2] G3AB2G2A4 | 
[V:3] z12 | 
[V:4] z12 | 
[V:1] G3AB2G2A4 | 
[V:2] GABcd2e2f2d2- | 
[V:3] z12 | 
[V:4] G,8F,4 | 
[V:1] G4z4z2c2- | 
[V:2] d2e2d2g4^f2 | 
[V:3] z12 | 
[V:4] G,3A,B,2G,2A,4 | 
[V:1] c2B2c4A4 | 
[V:2] g4e4d3c | 
[V:3] G8F4 | 
[V:4] G,4C,4D,4 | 
[V:1] G4z4z2A2 | 
[V:2] B3A/G/F2G4^F2 | 
[V:3] G4B4c4 | 
[V:4] _E,4D,2B,,2A,,4 | 
[V:1] B4c3BG2B2 | 
[V:2] G4A4z2d2 | 
[V:3] B4z2A2B4 | 
[V:4] G,,2G,4F,2G,4 | 
[V:1] A4G2G4^F2 | 
[V:2] f4e2d2e2d2 | 
[V:3] c3BG2B2A4 | 
[V:4] F,3D,E,F,G,2C,2D,2 | 
[V:1] G8z4 | 
[V:2] B2_e4d2c4 | 
[V:3] G12 | 
[V:4] _E,3D,C,2B,,2C,4 | 
[V:1] B8B4 | 
[V:2] B4z2G3ABc | 
[V:3] z12 | 
[V:4] G,,8z4 | 
[V:1] B6AGA4 | 
[V:2] d2_e3dg4^f2 | 
[V:3] z12 | 
[V:4] z12 | 
[V:1] G8z4 | 
[V:2] g4z4z4 | 
[V:3] B8B4 | 
[V:4] G,,4G,,A,,B,,C,D,2_E,2 | 
[V:1] z12 | 
[V:2] z12 | 
[V:3] B6AGA4 | 
[V:4] D,2_E,3D,G,4^F,2 | 
[V:1] z2B2B3cd2c2 | 
[V:2] z2g4fed2e2 | 
[V:3] G4z4z4 | 
[V:4] G,8z4 | 
[V:1] d2_e3dd4c2 | 
[V:2] f2c2d4_e4 | 
[V:3] z12 | 
[V:4] z12 | 
[V:1] d4z4z4 | 
[V:2] d8z4 | 
[V:3] z2B2B3cd2c2 | 
[V:4] z2G,4F,E,D,2E,2 | 
[V:1] z12 | 
[V:2] z12 | 
[V:3] d2_e3dd4c2 | 
[V:4] F,2C,2D,4_E,4 | 
[V:1] F6F2F4 | 
[V:2] A6A2B4- | 
[V:3] d8z4 | 
[V:4] D,8B,,4- | 
[V:1] D4F4G4 | 
[V:2] B2AGF4B4 | 
[V:3] d8d4 | 
[V:4] B,,2B,,2B,,4G,,4 | 
[V:1] F2E3DB4AG | 
[V:2] A4z4G2A2 | 
[V:3] c4B4B3c | 
[V:4] A,,4G,,2G,4F,E, | 
[V:1] F2c3BB4A2 | 
[V:2] B2c2d2_e2f4 | 
[V:3] d2_e3dB2c4 | 
[V:4] D,2C,2G,4F,4 | 
[V:1] B4z2B4AG | 
[V:2] d8B4- | 
[V:3] B4z4z2B2 | 
[V:4] B,,3C,D,2G,,3A,,B,,C, | 
[V:1] F2G2A3GF2ED | 
[V:2] B2AGF2E2F4 | 
[V:3] B4A4B4 | 
[V:4] D,2E,2F,2C,2D,4 | 
[V:1] EDA3GG4^F2 | 
[V:2] G2_e3dBcd4- | 
[V:3] c4B2G2A4 | 
[V:4] C,4_E,4D,4 | 
[V:1] G4z4A4 | 
[V:2] d8c3B | 
[V:3] G8z4 | 
[V:4] G,8z2F,2- | 
[V:1] F2G2A2D2G2A2 | 
[V:2] A2G2c2B2_e2d2- | 
[V:3] z4z2B4A2 | 
[V:4] F,2E,2F,2G,2_E,2F,2 | 
[V:1] D2A4G4_E2 | 
[V:2] dcABcd_e3dBc | 
[V:3] B2c2A2B2c2B2- | 
[V:4] G,2F,4_E,D,E,4 | 
[V:1] F2G4^F2G4 | 
[V:2] d12 | 
[V:3] B2AGA4G4 | 
[V:4] D,8z4 | 
[V:1] A4F2G2A2D2 | 
[V:2] c3BA2G2c2B2 | 
[V:3] z4z4z2B2- | 
[V:4] z2F,4E,2F,2G,2 | 
[V:1] G2A2D2A4G2- | 
[V:2] _e2d3cABc3B | 
[V:3] B2A2B2c2A2B2 | 
[V:4] _E,2F,2G,2F,4E,D, | 
[V:1] G2_E2F2G4^F2 | 
[V:2] GABcdB_e3dd2- | 
[V:3] c2B4AGA4 | 
[V:4] _E,4D,2C,B,,C,2D,2 | 
[V:1] G12- | 
[V:2] dcc4B2c4 | 
[V:3] G12- | 
[V:4] B,,2C,2G,,4C,4 | 
[V:1] G12 ||  
[V:2] d12 ||  
[V:3] G12 ||  
[V:4] G,,12 ||  
[V:1] [M:2/1]z8 | 
[V:2] [M:2/1]z8 | 
[V:3] [M:2/1]G4F4 | 
[V:4] [M:2/1]z8 | 
[V:1] z8 | 
[V:2] z8 | 
[V:3] G2A2B4 | 
[V:4] z4D,4 | 
[V:1] z8 | 
[V:2] z8 | 
[V:3] c4B4 | 
[V:4] C,4D,2E,2 | 
[V:1] z8 | 
[V:2] z8 | 
[V:3] z2A2B4 | 
[V:4] F,4G,4 | 
[V:1] z8 | 
[V:2] z8 | 
[V:3] c3BG4 | 
[V:4] F,4z2E,2 | 
[V:1] z8 | 
[V:2] z8 | 
[V:3] A4G2B2- | 
[V:4] F,4G,3F, | 
[V:1] z8 | 
[V:2] z8 | 
[V:3] BAF2G4 | 
[V:4] D,4E,4 | 
[V:1] z8 | 
[V:2] z8 | 
[V:3] F2A3GG2 | 
[V:4] D,2F,3E,C,2 | 
[V:1] z8 | 
[V:2] z8 | 
[V:3] F2D2E4 | 
[V:4] D,4C,4 | 
[V:1] z8 | 
[V:2] z8 | 
[V:3] D3EFGA2- | 
[V:4] B,,2D,3C,C,2 | 
[V:1] z8 | 
[V:2] z8 | 
[V:3] AGG4^F2 | 
[V:4] B,,2G,,2A,,4 | 
[V:1] B8 | 
[V:2] z4G4 | 
[V:3] G4z4 | 
[V:4] G,,8 | 
[V:1] B8 | 
[V:2] GABcd2_e2 | 
[V:3] z8 | 
[V:4] z8 | 
[V:1] B4A2B2- | 
[V:2] d2_e2f2g2- | 
[V:3] z8 | 
[V:4] z8 | 
[V:1] B2AGA4 | 
[V:2] g2fef2d2 | 
[V:3] z8 | 
[V:4] z8 | 
[V:1] G2B4A2 | 
[V:2] e4d2f2 | 
[V:3] z8 | 
[V:4] z8 | 
[V:1] G2B4A2 | 
[V:2] e2d2f4 | 
[V:3] z8 | 
[V:4] z8 | 
[V:1] G2F2E4 | 
[V:2] e2d4^c2 | 
[V:3] z8 | 
[V:4] z8 | 
[V:1] DEFGABcd | 
[V:2] d4f4 | 
[V:3] z8 | 
[V:4] z8 | 
[V:1] e2d4^c2 | 
[V:2] e8 | 
[V:3] z8 | 
[V:4] z8 | 
[V:1] d4z4 | 
[V:2] d8 | 
[V:3] z4d4- | 
[V:4] G,,4G,,A,,B,,C, | 
[V:1] z8 | 
[V:2] z8 | 
[V:3] d4d4 | 
[V:4] D,2B,,C,D,E,F,G, | 
[V:1] z8 | 
[V:2] z8 | 
[V:3] c8 | 
[V:4] A,2B,3A,/G,/A,2 | 
[V:1] z8 | 
[V:2] z8 | 
[V:3] B6AG | 
[V:4] B,4z4 | 
[V:1] z8 | 
[V:2] z8 | 
[V:3] F2B3AA2- | 
[V:4] D,8 | 
[V:1] z8 | 
[V:2] z8 | 
[V:3] AGFEF2A2- | 
[V:4] D,8 | 
[V:1] z8 | 
[V:2] z8 | 
[V:3] AGE2DEFG | 
[V:4] C,4B,,4 | 
[V:1] z8 | 
[V:2] z8 | 
[V:3] A2B4A2 | 
[V:4] C,8 | 
[V:1] z2B2B4 | 
[V:2] z8 | 
[V:3] B8 | 
[V:4] B,,8 | 
[V:1] A4B4 | 
[V:2] z2d2d4 | 
[V:3] z8 | 
[V:4] z8 | 
[V:1] c3BA3G | 
[V:2] c4d4- | 
[V:3] z8 | 
[V:4] z8 | 
[V:1] F2G2B4 | 
[V:2] d2_e4d2 | 
[V:3] z8 | 
[V:4] z8 | 
[V:1] A2G3^F/E/F2 | 
[V:2] c2B2A4 | 
[V:3] z8 | 
[V:4] z8 | 
[V:1] G8 | 
[V:2] G8 | 
[V:3] z2B2B4 | 
[V:4] z8 | 
[V:1] z8 | 
[V:2] z8 | 
[V:3] A4B4 | 
[V:4] z2D,2D,4 | 
[V:1] z8 | 
[V:2] z8 | 
[V:3] c3BA3G | 
[V:4] C,4D,4- | 
[V:1] z8 | 
[V:2] z8 | 
[V:3] F2G2B4 | 
[V:4] D,2_E,4D,2 | 
[V:1] z8 | 
[V:2] z8 | 
[V:3] A2G3^F/E/^F2 | 
[V:4] C,2B,,2A,,4 | 
[V:1] z2B4B2 | 
[V:2] d6e2 | 
[V:3] G8 | 
[V:4] G,,4z4 | 
[V:1] A2B2c3B | 
[V:2] f4e2d2- | 
[V:3] z2F2G2A2 | 
[V:4] D,4C,2F,2- | 
[V:1] A2G2F2A2- | 
[V:2] dBc2d4 | 
[V:3] F2G2A2B2 | 
[V:4] F,2E,2D,4 | 
[V:1] AGG4^F2 | 
[V:2] _e4d4- | 
[V:3] c3BAGA2 | 
[V:4] C,4D,4 | 
[V:1] G2B4A2 | 
[V:2] d4z2f2- | 
[V:3] G4z2d2- | 
[V:4] z2G,4F,2 | 
[V:1] F2G2A2D2 | 
[V:2] f2edc2BA | 
[V:3] d2c2A2B2 | 
[V:4] D,2E,2F,2G,2 | 
[V:1] G2F2D2E2 | 
[V:2] G2A2G4 | 
[V:3] c2d2B2c2 | 
[V:4] E,2F,2G,2C,2 | 
[V:1] F2G2F2A2 | 
[V:2] z4z2d2- | 
[V:3] d2G2B2A2 | 
[V:4] F,2E,2D,2F,2 | 
[V:1] B2G4^F2 | 
[V:2] dccBd4- | 
[V:3] G4A4 | 
[V:4] _E,4D,4 | 
[V:1] G2B4A2 | 
[V:2] d4z2f2- | 
[V:3] G4z2d2- | 
[V:4] z2G,4F,2 | 
[V:1] F2G2A2D2 | 
[V:2] f2edc2BA | 
[V:3] d2c2A2B2 | 
[V:4] D,2E,2F,2G,2 | 
[V:1] G2F2D2E2 | 
[V:2] G2A2G4 | 
[V:3] c2d2B2c2 | 
[V:4] E,2F,2G,2C,2 | 
[V:1] F2G2F2A2 | 
[V:2] z4z2d2- | 
[V:3] d2G2B2A2 | 
[V:4] F,2E,2D,2F,2 | 
[V:1] B2G4^F2 | 
[V:2] dccBd4- | 
[V:3] G4A4 | 
[V:4] _E,4D,4 | 
[V:1] G8 ||  
[V:2] d8 ||  
[V:3] G8 ||  
[V:4] G,,8 ||  
[V:1] [M:3/1]G6F2D4 | 
[V:2] [M:3/1]d8d4 | 
[V:3] [M:3/1]G12- | 
[V:4] [M:3/1]G,,6A,,2B,,4 | 
[V:1] E4F4B4- | 
[V:2] c4A4d4 | 
[V:3] G4F8 | 
[V:4] C,4D,4B,,4 | 
[V:1] B2A2G2F2F4 | 
[V:2] B4_e4d2_e2 | 
[V:3] G8B4- | 
[V:4] _E,6D,2B,,4 | 
[V:1] B8A4 | 
[V:2] f2d2g4f2_e2 | 
[V:3] B4c8 | 
[V:4] D,4_E,4F,4 | 
[V:1] B6A2G4 | 
[V:2] d2c2B4c2B2 | 
[V:3] B8z4 | 
[V:4] G,6F,2E,4 | 
[V:1] A6G2F4 | 
[V:2] A2G2F8 | 
[V:3] A8B4 | 
[V:4] F,4D,8 | 
[V:1] E4F4G4- | 
[V:2] G4A4G4 | 
[V:3] c8B4 | 
[V:4] C,4A,,4B,,4 | 
[V:1] G2F2D4E4 | 
[V:2] c4d4c4 | 
[V:3] G4B4A4 | 
[V:4] C,4B,,4C,4 | 
[V:1] F4E4D4 | 
[V:2] A4G4d4- | 
[V:3] F4G4A4 | 
[V:4] D,4E,4F,4 | 
[V:1] D4A6G2 | 
[V:2] d2B2_e6d2 | 
[V:3] B4c6B2 | 
[V:4] G,4C,4_E,4- | 
[V:1] G8^F4 | 
[V:2] B2c2d8- | 
[V:3] G4A8 | 
[V:4] E,4D,8 | 
[V:1] G8z4 | 
[V:2] d8z4 | 
[V:3] G8z4 | 
[V:4] G,,12 | 
[V:1] B8B4 | 
[V:2] g6f2d4 | 
[V:3] z12 | 
[V:4] z12 | 
[V:1] G2A2B2c2A4 | 
[V:2] _e6c2d4 | 
[V:3] z12 | 
[V:4] z12 | 
[V:1] G4B8 | 
[V:2] _e8d4 | 
[V:3] z12 | 
[V:4] z12 | 
[V:1] c4d4c4 | 
[V:2] c4B4A4 | 
[V:3] z12 | 
[V:4] z12 | 
[V:1] d4_e6d2 | 
[V:2] B4c4d4- | 
[V:3] z12 | 
[V:4] z12 | 
[V:1] d8c4 | 
[V:2] d4_e8 | 
[V:3] z12 | 
[V:4] z12 | 
[V:1] d8z4 | 
[V:2] d12 | 
[V:3] B8B4 | 
[V:4] G,6F,2D,4 | 
[V:1] z12 | 
[V:2] z12 | 
[V:3] G2A2B2c2A4 | 
[V:4] _E,6C,2D,4 | 
[V:1] z12 | 
[V:2] z12 | 
[V:3] G4B8 | 
[V:4] _E,8D,4 | 
[V:1] z12 | 
[V:2] z12 | 
[V:3] c4d4c4 | 
[V:4] C,4B,,4A,,4 | 
[V:1] z12 | 
[V:2] z12 | 
[V:3] d4_e6d2 | 
[V:4] B,,4C,4D,4- | 
[V:1] z12 | 
[V:2] z12 | 
[V:3] d8c4 | 
[V:4] D,4_E,8 | 
[V:1] d6c2A4 | 
[V:2] f8f4 | 
[V:3] d8z4 | 
[V:4] D,6E,2F,4 | 
[V:1] B4A8 | 
[V:2] B4d6c2 | 
[V:3] d8d4- | 
[V:4] G,4D,4F,4 | 
[V:1] B4c4A4 | 
[V:2] B4A2B2c2d2 | 
[V:3] d4c8 | 
[V:4] G,4A,4F,4 | 
[V:1] G4c6B2 | 
[V:2] e4f8 | 
[V:3] B4A4B4- | 
[V:4] G,4F,4G,4- | 
[V:1] B8A4 | 
[V:2] e4f8 | 
[V:3] B4c8 | 
[V:4] G,4F,8 | 
[V:1] B4z4B4 | 
[V:2] d6e2f4 | 
[V:3] B8z4 | 
[V:4] B,,12 | 
[V:1] B4A4B4 | 
[V:2] g4f4g4- | 
[V:3] z12 | 
[V:4] z12 | 
[V:1] c6B2A2G2 | 
[V:2] g2f2e2d2c4 | 
[V:3] z12 | 
[V:4] z12 | 
[V:1] F4A6G2 | 
[V:2] d8c2B2 | 
[V:3] z12 | 
[V:4] z12 | 
[V:1] G8^F4 | 
[V:2] A2G2A4A4 | 
[V:3] z12 | 
[V:4] z12 | 
[V:1] G8z4 | 
[V:2] G8z4 | 
[V:3] z4B8 | 
[V:4] z4G,6F,2 | 
[V:1] z12 | 
[V:2] z12 | 
[V:3] B4A4B4 | 
[V:4] D,2E,2F,4G,4- | 
[V:1] z12 | 
[V:2] z12 | 
[V:3] c6B2A2G2 | 
[V:4] G,2F,2E,2D,2C,4 | 
[V:1] z12 | 
[V:2] z12 | 
[V:3] F4A6G2 | 
[V:4] D,8C,2B,,2 | 
[V:1] z12 | 
[V:2] z12 | 
[V:3] G8^F4 | 
[V:4] A,,2G,,2A,,4A,,4 | 
[V:1] G8F4 | 
[V:2] d8d4 | 
[V:3] G8z4 | 
[V:4] G,,8z4 | 
[V:1] G4E4F4 | 
[V:2] d6B2c4 | 
[V:3] B4B4A4 | 
[V:4] G,8F,4 | 
[V:1] D4E4C4 | 
[V:2] B4G4A4 | 
[V:3] B4c8 | 
[V:4] G,4E,4F,4 | 
[V:1] D4G8 | 
[V:2] B8_e4- | 
[V:3] B4G4B4 | 
[V:4] D,4_E,8 | 
[V:1] F2_E2F4F4 | 
[V:2] e4d8 | 
[V:3] c4A8 | 
[V:4] C,4D,8 | 
[V:1] G4d6c2 | 
[V:2] z4d4f4- | 
[V:3] z4z4d4- | 
[V:4] G,6F,2D,4 | 
[V:1] A4c8 | 
[V:2] f2e2c4_e4- | 
[V:3] d2c2A4c4- | 
[V:4] F,8_E,4 | 
[V:1] c4G4B4- | 
[V:2] e4_e4B4 | 
[V:3] c4B4G4 | 
[V:4] C,4_E,6D,2 | 
[V:1] B2A2F4A4- | 
[V:2] d6c2A4 | 
[V:3] B6A2F4 | 
[V:4] B,,4D,8 | 
[V:1] A4A4E4 | 
[V:2] c8c4 | 
[V:3] A8G4 | 
[V:4] C,4A,,4C,4- | 
[V:1] G6F2D4 | 
[V:2] G8z4 | 
[V:3] E4G6F2 | 
[V:4] C,2B,,2G,,4G,4- | 
[V:1] d6c2A4 | 
[V:2] d4f6e2 | 
[V:3] D4d6c2 | 
[V:4] G,2F,2D,4F,4- | 
[V:1] c8c4 | 
[V:2] c4_e8 | 
[V:3] A4c8 | 
[V:4] F,4_E,4C,4 | 
[V:1] G4B6A2 | 
[V:2] _e4B4d4- | 
[V:3] B4G4B4- | 
[V:4] _E,6D,2B,,4 | 
[V:1] F4A8 | 
[V:2] d2c2A4c4- | 
[V:3] B2A2F4A4- | 
[V:4] D,8C,4 | 
[V:1] A4E4G4- | 
[V:2] c4c4G4 | 
[V:3] A4G4E4 | 
[V:4] A,,4C,6B,,2 | 
[V:1] G4C4F4 | 
[V:2] d4c4d4 | 
[V:3] G6F2D4 | 
[V:4] G,,4A,,4B,,4 | 
[V:1] E4A6G2 | 
[V:2] z4d8 | 
[V:3] E4F4G4- | 
[V:4] C,4D,4_E,4- | 
[V:1] G8^F4 | 
[V:2] c4d8 | 
[V:3] G4A8 | 
[V:4] E,4D,8 | 
[V:1] G12 ||  
[V:2] d12 ||  
[V:3] G12 ||  
[V:4] G,,12 ||  
[V:1] [M:2/1]z8 | 
[V:2] [M:2/1]G6FE | 
[V:3] [M:2/1]z8 | 
[V:4] [M:2/1]z8 | 
[V:1] z4G4- | 
[V:2] F4G3A | 
[V:3] z8 | 
[V:4] z8 | 
[V:1] G2FEF4 | 
[V:2] B2c2d2B2- | 
[V:3] z8 | 
[V:4] z8 | 
[V:1] G4B4 | 
[V:2] B2c2d2B2 | 
[V:3] z8 | 
[V:4] z8 | 
[V:1] c4B4 | 
[V:2] A4z2G2- | 
[V:3] z8 | 
[V:4] z8 | 
[V:1] z2A2B4 | 
[V:2] G2F2G4 | 
[V:3] z8 | 
[V:4] z8 | 
[V:1] c3BG2B2 | 
[V:2] A4B4 | 
[V:3] z8 | 
[V:4] z8 | 
[V:1] A2G4F2- | 
[V:2] c3BG2B2 | 
[V:3] z8 | 
[V:4] z8 | 
[V:1] F2B3AA2- | 
[V:2] A2G4F2 | 
[V:3] z8 | 
[V:4] z8 | 
[V:1] AGG4^F2 | 
[V:2] G4A4 | 
[V:3] z8 | 
[V:4] z8 | 
[V:1] G8 | 
[V:2] G8 | 
[V:3] z8 | 
[V:4] z2C,4B,,A,, | 
[V:1] z8 | 
[V:2] z8 | 
[V:3] z2G4FE | 
[V:4] B,,4C,4 | 
[V:1] z8 | 
[V:2] z8 | 
[V:3] F4G4 | 
[V:4] D,4_E,4 | 
[V:1] z8 | 
[V:2] z8 | 
[V:3] A4B4 | 
[V:4] D,4z2G,2- | 
[V:1] z8 | 
[V:2] z8 | 
[V:3] A4z2d2- | 
[V:4] G,2F,2G,F,E,D, | 
[V:1] z8 | 
[V:2] z8 | 
[V:3] d2c2dcBA | 
[V:4] E,4D,4- | 
[V:1] z8 | 
[V:2] z8 | 
[V:3] B4A4 | 
[V:4] D,8 | 
[V:1] z8 | 
[V:2] z8 | 
[V:3] z2F3GAB | 
[V:4] B,,3C,D,_E,D,2- | 
[V:1] z8 | 
[V:2] z8 | 
[V:3] A2B4A2- | 
[V:4] D,C,B,,A,,G,,2A,,2 | 
[V:1] z4c4 | 
[V:2] z8 | 
[V:3] AGG4^F2 | 
[V:4] B,,2C,2A,,4 | 
[V:1] B6AG | 
[V:2] z2g4fe | 
[V:3] G4z4 | 
[V:4] G,,4G,,A,,B,,C, | 
[V:1] F2G4FE | 
[V:2] d2GABcde | 
[V:3] B8 | 
[V:4] D,2_E,4D,C, | 
[V:1] D2B,CDEFG | 
[V:2] f2g2f2d2 | 
[V:3] B8 | 
[V:4] B,,2G,,2B,,4 | 
[V:1] A2G4^F2 | 
[V:2] e4d4 | 
[V:3] A8 | 
[V:4] C,4D,4 | 
[V:1] G8 | 
[V:2] d8 | 
[V:3] G4z2B2- | 
[V:4] G,,4G,4- | 
[V:1] z8 | 
[V:2] z8 | 
[V:3] B2A2B2c2 | 
[V:4] G,2F,2G,2E,2 | 
[V:1] z8 | 
[V:2] z8 | 
[V:3] A2B2c2A2 | 
[V:4] F,2G,2E,2F,2 | 
[V:1] z8 | 
[V:2] z8 | 
[V:3] B2c2d2_e2- | 
[V:4] G,2A,2F,2G,2- | 
[V:1] z8 | 
[V:2] z8 | 
[V:3] edd4c2 | 
[V:4] G,F,_E,D,E,4 | 
[V:1] z2d4cB | 
[V:2] z8 | 
[V:3] d8 | 
[V:4] D,8 | 
[V:1] A2B4AG | 
[V:2] z2d4cB | 
[V:3] z8 | 
[V:4] z8 | 
[V:1] F2G3AB2 | 
[V:2] A2B4AG | 
[V:3] z8 | 
[V:4] z8 | 
[V:1] A2F2G2AG | 
[V:2] F2A2B2c2 | 
[V:3] z8 | 
[V:4] z8 | 
[V:1] ABc2A4 | 
[V:2] AGABc2d2- | 
[V:3] z8 | 
[V:4] z8 | 
[V:1] B2c3BB2- | 
[V:2] d2_e3dcB | 
[V:3] z8 | 
[V:4] z8 | 
[V:1] B2A2B4- | 
[V:2] c4B4 | 
[V:3] z8 | 
[V:4] z8 | 
[V:1] B4z2B2- | 
[V:2] z2GABcde | 
[V:3] z2B4AG | 
[V:4] G,,4G,,A,,B,,C, | 
[V:1] B2B2A2B2 | 
[V:2] f2e3dd2 | 
[V:3] F2G2A2G2 | 
[V:4] D,2E,2F,2G,2 | 
[V:1] c3BG2B2 | 
[V:2] c4z2f2 | 
[V:3] EFGABcd2 | 
[V:4] C,2_E,3D,B,,2 | 
[V:1] A2F2G2A2- | 
[V:2] e2d2c2f2- | 
[V:3] cBA2G2c2 | 
[V:4] C,2D,2E,2F,2 | 
[V:1] AGG4^F2 | 
[V:2] fedcd4 | 
[V:3] B2G2A4 | 
[V:4] G,2E,2D,4 | 
[V:1] G4z2G2- | 
[V:2] B4z2B2 | 
[V:3] z2d4B2 | 
[V:4] G,,4G,4 | 
[V:1] G2F2B2A2- | 
[V:2] G2A2B2c2 | 
[V:3] c2d2G2c2- | 
[V:4] E,2F,2G,2C,2 | 
[V:1] ABc2B2G2 | 
[V:2] F2f4e2 | 
[V:3] c2A2B2c2 | 
[V:4] F,4D,2E,2 | 
[V:1] A2D2G3F | 
[V:2] c2d2G2g2- | 
[V:3] F2B4G2 | 
[V:4] F,2B,,2_E,4 | 
[V:1] E2D2z2A2- | 
[V:2] g2f2c2d2 | 
[V:3] A2B2G2A2 | 
[V:4] C,2D,2E,2D,2- | 
[V:1] ADG3^FFE | 
[V:2] _e4d4 | 
[V:3] B2c2A4 | 
[V:4] D,2C,2D,4 | 
[V:1] G4z2G2- | 
[V:2] B4z2B2 | 
[V:3] z2d4B2 | 
[V:4] G,,4G,4 | 
[V:1] G2F2B2A2- | 
[V:2] G2A2B2c2 | 
[V:3] c2d2G2c2- | 
[V:4] E,2F,2G,2C,2 | 
[V:1] ABc2B2G2 | 
[V:2] F2f4e2 | 
[V:3] c2A2B2c2 | 
[V:4] F,4D,2E,2 | 
[V:1] A2D2G3F | 
[V:2] c2d2G2g2- | 
[V:3] F2B4G2 | 
[V:4] F,2B,,2_E,4 | 
[V:1] E2D2z2A2- | 
[V:2] g2f2c2d2 | 
[V:3] A2B2G2A2 | 
[V:4] C,2D,2E,2D,2- | 
[V:1] ADG3^FFE | 
[V:2] _e4d4 | 
[V:3] B2c2A4 | 
[V:4] D,2C,2D,4 | 
[V:1] G8 ||  
[V:2] B8 ||  
[V:3] G8 ||  
[V:4] G,,8 ||  



